X: 348
T: Bir Ateşim Yanarım
C: Avni Anıl
O: Turkey
F: http://compmusic.upf.edu/node/140
N: hicaz--sarki--duyek--bir_atesim--avni_anil
N: makam= hicaz
N: form= sarki
N: usul= duyek = 8/4
M: 8/4
L: 1/16
K: C _7/8B ^f ^c 
Q: 1/4=132
%%MIDI tuningsystem comma53
ag a4 gf g3f e4  | g/f/g/a/ g4 ^1/4fe =f3e d4  | \
w:  ARANAĞME  |   | 
=f/e/f/g/ f4 ed e2 dc e4  | 
w:   | 
z2 a4 g=f ed cB A4  | ag a4 gf g3f e4  | \
w:   |  ARANAĞME  | 
g/f/g/a/ g4 ^1/4fe =f3e d4  | 
w:   | 
=f/e/f/g/ f4 ed e2 dc e4  | z2 a4 g=f ed cB A4  | \
w:   |   | 
z2 d6 d2 d2 d4  | 
w:  Bir  a te şim   | 
(3d2c2d2 (3c2B2c2 (3B2A2B2 A4  | z2 a4 g=f ed cB A4  | \
w:  ya na *  rım   |  SAZ  | 
g2 g2 f2 ed de fg a4  | 
w:  kü lüm  *  *  *  yok   | 
z4 a2 a=b ag fa gf ed  | d16  | ag a4 gf g3f e4  | 
w:  du ma *  nım   |  yok    |  SAZ  | 
g/f/g/a/ g4 ^1/4fe =f3e d4  | z2 a4 g=f ed cB A4  | \
w:   |   | 
z2 d6 d2 d2 d4  | 
w:  Bir  a te şim   | 
(3d2c2d2 (3c2B2c2 (3B2A2B2 A4  | z2 a4 g=f ed cB A4  | \
w:  ya na *  rım   |  SAZ  | 
g2 g2 f2 ed de fg a4  | 
w:  kü lüm  *  *  *  yok   | 
z4 a2 a=b ag fa gf ed  | d16  | ag a4 gf g3f e4  | 
w:  du ma *  nım   |  yok    |  SAZ  | 
g/f/g/a/ g4 ^1/4fe =f3e d4  | z2 (3aga (3g=fg (3fef (3ede (3dce d4  | 
w:   |   | 
z2 a6 a4 a2 g2  | ga b=c' ab g2 g2 ag =fe d2  | \
w:  Sen  yok san   |  me kâ *  *  *  *  *  nım   | 
z2 g4 g2 g/f/g3 {f}g2 fe  | 
w:  bel li  de *  *  *  ğil   | 
ag a4 g=f g2 ^fe =f3/2e/ d2  | e2 =fe d2 e2 cB BA A3G  | 
w:  SAZ  |  za ma *  *  *  nım   | 
AB cd ef ga g=f ed c2 {d}BA  | A16  | \
w:   |  yok    | 
ag a4 gf g3f e4  | 
w:  SAZ  | 
g/f/g/a/ g4 ^1/4fe =f3e d4  | z2 (3aga (3g=fg (3fef (3ede (3dce d4  | 
w:   |   | 
z2 a6 a4 a2 g2  | ga b=c' ab g2 g2 ag =fe d2  | \
w:  Sen  yok san   |  me kâ *  *  *  *  *  nım   | 
z2 g4 g2 g/f/g3 {f}g2 fe  | 
w:  bel li  de *  *  *  ğil   | 
ag a4 g=f g2 ^fe =f3/2e/ d2  | e2 =fe d2 e2 cB BA A3G  | 
w:  SAZ  |  za ma *  *  *  nım   | 
AB cd ef ga g=f ed c2 {d}BA  | A16  | \
w:   |  yok    | 
ag a4 gf g3f e4  | 
w:  SAZ  | 
g/f/g/a/ g4 ^1/4fe =f3e d4  | z2 a4 ag ag f^e f4  | \
w:   |   | 
z2 a4 a2 a2 a4 b2  | 
w:  Fır tı na lar   | 
(3bab c'2 b2 a^g a2 a=f f2 ga  | a=f2e d4 af2e d4  | 
w:  *  *  *  *  *  *  *  i çin  |  de   | 
z2 a4 g=f ed cB A4  | f2 g4 (3fef g3f g2 fe  | \
w:  SAZ  |  be ni  *  *  *  yal *  nız   | 
a2 a4 a=b ag =fe d4  | 
w:  be ni  *  *  yal *  *  *  nız   | 
c'2 b2 b3a a8  | ag a4 gf g3f e4  | g/f/g/a/ g4 ^1/4fe =f3e d4  | 
w:  bı rak *  *  ma    |  SAZ  |   | 
z2 (3aga (3g=fg (3fef (3ede (3dce d4  | \
w:   | 
a2 a6 a4 a2 g2  | 
w:  Be nim  sen den   | 
ga b=c' ab g2 g2 ag =fe d2  | f2 g4 g2 g/f/g3 {f}g2 fe  | 
w:  baş *  *  *  *  *  *  ka   |  sı ğı *  na *  *  *  cak   | 
ag a4 g=f g2 ^fe =f3/2e/ d2  | e2 =fe d2 e2 cB BA A3G  | 
w:  SAZ  |  li ma *  *  *  nım   | 
AB cd ef ga g=f ed c2 {d}BA  | A16  | \
w:   |  yok    | 
ag a4 gf g3f e4  | 
w:  SAZ  | 
g/f/g/a/ g4 ^1/4fe =f3e d4  | z2 (3aga (3g=fg (3fef (3ede (3dce d4  | 
w:   |   | 
a2 a6 a4 a2 g2  | ga b=c' ab g2 g2 ag =fe d2  | \
w:  Be nim  sen den   |  baş *  *  *  *  *  *  ka   | 
f2 g4 g2 g/f/g3 {f}g2 fe  | 
w:  sı ğı *  na *  *  *  cak   | 
ag a4 g=f g2 ^fe =f3/2e/ d2  | e2 =fe d2 e2 cB BA A3G  | 
w:  SAZ  |  li ma *  *  *  nım   | 
AB cd ef ga g=f ed c2 {d}BA  | A16  | |


